packages/icons/plugins/MarketsClaim.svg

<svg width="36" height="36" viewBox="0 0 36 36" xmlns="http://www.w3.org/2000/svg">
<path d="M5.98291 10.8867H31.8683V16.2617H5.98291V10.8867Z" fill="#FF4A4A" />
        <path d="M7.77734 16.2568H30.069V31.0937H7.77734V16.2568Z" fill="#FB4141" />
        <path d="M7.77734 16.2568H30.069V18.3193H7.77734V16.2568Z" fill="#F03333" />
        <path d="M16.1284 10.8867H21.7222V31.0985H16.1284V10.8867Z" fill="#FFB45B" />
        <path d="M17.7251 10.8867H20.1244V31.0985H17.7251V10.8867Z" fill="#FFEF5B" />
        <path d="M20.1253 10.8848L14.344 5.10352L10.3892 9.05838L12.2155 10.8848H20.1253Z" fill="#FFB45B" />
        <path d="M17.8643 10.8842L13.215 6.23145L11.5171 7.92936L14.472 10.8842H17.8643Z" fill="#FFEF5B" />
        <path d="M17.7251 10.8848L23.5029 5.10352L27.4577 9.05838L25.6348 10.8848H17.7251Z" fill="#FFB45B" />
        <path d="M19.9824 10.8842L24.6317 6.23145L26.3296 7.92936L23.3748 10.8842H19.9824Z" fill="#FFEF5B" />
</svg>

<svg xmlns="http://www.w3.org/2000/svg" viewBox="0 0 36 36">
    <path fill="#FF4A4A" d="M5.983 10.887h25.885v5.375H5.983v-5.375Z"/>
    <path fill="#FB4141" d="M7.777 16.257H30.07v14.837H7.777V16.257Z"/>
    <path fill="#F03333" d="M7.777 16.257H30.07v2.062H7.777v-2.062Z"/>
    <path fill="#FFB45B" d="M16.128 10.887h5.594v20.212h-5.594V10.887Z"/>
    <path fill="#FFEF5B" d="M17.725 10.887h2.4v20.212h-2.4V10.887Z"/>
    <path fill="#FFB45B" d="m20.125 10.885-5.781-5.781-3.955 3.954 1.827 1.827h7.91Z"/>
    <path fill="#FFEF5B" d="m17.864 10.884-4.649-4.653-1.698 1.698 2.955 2.955h3.392Z"/>
    <path fill="#FFB45B" d="m17.725 10.885 5.778-5.781 3.955 3.954-1.823 1.827h-7.91Z"/>
    <path fill="#FFEF5B" d="m19.982 10.884 4.65-4.653L26.33 7.93l-2.955 2.955h-3.393Z"/>
</svg>
